X: 1
T: Draper's Gardens   (F)
T: the Margravine's Waltz
B: Barnes p.30
Z: 1998 by John Chambers <jc:trillian.mit.edu>
M: 3/4
L: 1/8
K: F
|: C2 \
| "F"F2 F2 F2 | A2 A2 A2 | c2 c2 c2 | "Bb"d4 de \
| f2 e2 d2 | "F"c2 B2 A2 | "C7"G2 F2 E2 | "F"F4 :|
AB \
| "F"c2 c2 dc | "Gm"BA G2 GA | "C7"B2 B2 cB | "F"AG F2 AB \
| c2 c2 f2 | "Bb"d4 f2 | "G7"ga gf ed | "C"c4 ||
"C7"C2 \
| "F"C2 F2 A2 | "C7"C2 G2 B2 | "F"C2 A2 c2 | "Bb"B4 AB \
| "F"c2 A2 F2 | "Bb"D4 BA | "C7"G2 F2 E2 | "F"F4 |]
